X:22
T:Culloden Day
T:An cuala sibh mar thachair dhuinn
R:Strathspey
S:Simon Fraser Collection
N:No.143
N:transposed from E_
O:Scottish
M:C
L:1/8
Q:1/4=140
K:D
F/E/|D>F (F3/2^E/4F/4) AFF>_B|B>Fd>D E3 (3G/F/E/|
D>F (F3/2^E/4F/4) AFF>(^e|f>)(c d>)^E F2 F:|
(d/>e/)|f>e d>c BFF>B|A>FF>D E2 E (d/e/)|f>e d>c BFF(B/c/)|
d>cB>A ~F2 F(d/e/)|f>ed>c BFF>B|AFFD E2 E(D/E/)|
F>EDC B,/C/D/E/ F>^e|f>(cd>)(^E F2) F2||
